;FLAVOR:Marlin
;TIME:11159
;Filament used: 10.7969m
;Layer height: 0.15
;MINX:13.137
;MINY:16.489
;MINZ:0.3
;MAXX:92.737
;MAXY:100.061
;MAXZ:24
;Generated with Cura_SteamEngine 5.2.1
M140 S60
M105
M190 S60
M104 S200
M105
M109 S200
M82 ;absolute extrusion mode
G21 ;metric values
 G90 ;absolute positioning
 M82 ;set extruder to absolute mode
 M107 ;start with the fan off
 G28 X0 Y0 ;move X/Y to min endstops
 G28 Z0 ;move Z to min endstops
 G1 Z15.0 F120 ;move the platform down 15mm
 G92 E0 ;zero the extruded length
 G1 F200 E6 ;extrude 6 mm of feed stock
 G92 E0 ;zero the extruded length again
 G1 F120 
 ;Put printing message on LCD screen
 M117 Printing...
G92 E0
G92 E0
G1 F1500 E-6.5
;LAYER_COUNT:159
;LAYER:0
M107
G0 F3600 X17.058 Y18.942 Z0.3
;TYPE:SKIRT
G1 F1500 E0
G1 F1800 X18.142 Y18.153 E0.06689
G1 X19.347 Y17.492 E0.13546
G1 X20.599 Y16.998 E0.20261
G1 X21.909 Y16.659 E0.27012
G1 X23.264 Y16.489 E0.33825
G1 X82.622 Y16.489 E3.29963
G1 X83.976 Y16.661 E3.36772
G1 X85.281 Y16.999 E3.43498
G1 X86.545 Y17.5 E3.50281
G1 X87.736 Y18.156 E3.57065
G1 X88.835 Y18.957 E3.6385
G1 X89.815 Y19.874 E3.70546
G1 X90.678 Y20.92 E3.77311
G1 X91.406 Y22.065 E3.8408
G1 X91.986 Y23.295 E3.90865
G1 X92.404 Y24.587 E3.9764
G1 X92.66 Y25.925 E4.04436
G1 X92.737 Y27.147 E4.10545
G1 X92.737 Y89.401 E7.21131
G1 X92.66 Y90.628 E7.27265
G1 X92.404 Y91.962 E7.34041
G1 X91.989 Y93.246 E7.40774
G1 X91.406 Y94.487 E7.47614
G1 X90.681 Y95.627 E7.54354
G1 X89.809 Y96.68 E7.61175
G1 X88.817 Y97.609 E7.67956
G1 X87.731 Y98.399 E7.74656
G1 X86.531 Y99.057 E7.81484
G1 X85.269 Y99.555 E7.88252
G1 X83.967 Y99.891 E7.94961
G1 X82.611 Y100.061 E8.01779
G1 X23.254 Y100.061 E10.97912
G1 X21.904 Y99.89 E11.04701
G1 X20.594 Y99.552 E11.11451
G1 X19.326 Y99.049 E11.18256
G1 X18.142 Y98.398 E11.24997
G1 X17.043 Y97.597 E11.31782
G1 X16.056 Y96.671 E11.38534
G1 X15.194 Y95.628 E11.45285
G1 X14.468 Y94.486 E11.52036
G1 X13.887 Y93.25 E11.5885
G1 X13.47 Y91.96 E11.65613
G1 X13.214 Y90.629 E11.72376
G1 X13.137 Y89.403 E11.78504
G1 X13.137 Y27.148 E14.89096
G1 X13.214 Y25.925 E14.95209
G1 X13.471 Y24.583 E15.02026
G1 X13.886 Y23.304 E15.08735
G1 X14.467 Y22.066 E15.15557
G1 X15.194 Y20.923 E15.22316
G1 X16.064 Y19.87 E15.2913
G1 X17.058 Y18.942 E15.35915
G0 F3600 X17.306 Y19.256
G1 F1800 X18.364 Y18.487 E15.4244
G1 X19.518 Y17.855 E15.49004
G1 X20.725 Y17.378 E15.55479
G1 X21.981 Y17.054 E15.6195
G1 X23.29 Y16.889 E15.68533
G1 X82.595 Y16.889 E18.64407
G1 X83.895 Y17.054 E18.70944
G1 X85.162 Y17.382 E18.77474
G1 X86.377 Y17.863 E18.83993
G1 X87.52 Y18.494 E18.90507
G1 X88.572 Y19.261 E18.97002
G1 X89.524 Y20.152 E19.03507
G1 X90.358 Y21.162 E19.10042
G1 X91.054 Y22.257 E19.16515
G1 X91.612 Y23.439 E19.23036
G1 X92.016 Y24.689 E19.2959
G1 X92.261 Y25.97 E19.36097
G1 X92.337 Y27.172 E19.42106
G1 X92.337 Y89.376 E22.52443
G1 X92.261 Y90.583 E22.58477
G1 X92.016 Y91.86 E22.64964
G1 X91.615 Y93.102 E22.71475
G1 X91.057 Y94.289 E22.78019
G1 X90.353 Y95.396 E22.84564
G1 X89.517 Y96.406 E22.91105
G1 X88.568 Y97.294 E22.97589
G1 X87.512 Y98.063 E23.04106
G1 X86.361 Y98.694 E23.10655
G1 X85.141 Y99.176 E23.17199
G1 X83.896 Y99.496 E23.23613
G1 X82.585 Y99.661 E23.30205
G1 X23.28 Y99.661 E26.26079
G1 X21.984 Y99.497 E26.32596
G1 X20.709 Y99.168 E26.39165
G1 X19.505 Y98.691 E26.45626
G1 X18.351 Y98.056 E26.52198
G1 X17.297 Y97.286 E26.5871
G1 X16.35 Y96.399 E26.65183
G1 X15.522 Y95.397 E26.71668
G1 X14.817 Y94.289 E26.7822
G1 X14.258 Y93.1 E26.84775
G1 X13.859 Y91.866 E26.91245
G1 X13.613 Y90.583 E26.97763
G1 X13.537 Y89.378 E27.03787
G1 X13.537 Y27.173 E30.14129
G1 X13.613 Y25.971 E30.20137
G1 X13.858 Y24.687 E30.26659
G1 X14.261 Y23.445 E30.33173
G1 X14.817 Y22.263 E30.3969
G1 X15.522 Y21.154 E30.46246
G1 X16.355 Y20.145 E30.52774
G1 X17.306 Y19.256 E30.59269
G0 F3600 X17.563 Y19.564
G1 F1800 X18.573 Y18.829 E30.65501
G1 X19.688 Y18.218 E30.71844
G1 X20.851 Y17.758 E30.78083
G1 X22.061 Y17.446 E30.84318
G1 X23.308 Y17.289 E30.90588
G1 X82.569 Y17.289 E33.86242
G1 X83.823 Y17.448 E33.92549
G1 X85.035 Y17.762 E33.98795
G1 X86.201 Y18.224 E34.05052
G1 X87.312 Y18.836 E34.1138
G1 X88.315 Y19.568 E34.17575
G1 X89.235 Y20.429 E34.23862
G1 X90.027 Y21.388 E34.30067
G1 X90.704 Y22.452 E34.36359
G1 X91.242 Y23.594 E34.42657
G1 X91.627 Y24.783 E34.48892
G1 X91.866 Y26.031 E34.55231
G1 X91.937 Y27.274 E34.61443
G1 X91.937 Y89.275 E37.70767
G1 X91.866 Y90.522 E37.76998
G1 X91.626 Y91.767 E37.83324
G1 X91.243 Y92.955 E37.89551
G1 X90.705 Y94.098 E37.95854
G1 X90.032 Y95.156 E38.0211
G1 X89.228 Y96.128 E38.08403
G1 X88.307 Y96.99 E38.14696
G1 X87.298 Y97.724 E38.20921
G1 X86.193 Y98.33 E38.27209
G1 X85.023 Y98.792 E38.33485
G1 X83.81 Y99.105 E38.39735
G1 X82.567 Y99.261 E38.45985
G1 X23.306 Y99.261 E41.41639
G1 X22.056 Y99.102 E41.47925
G1 X20.835 Y98.788 E41.54215
G1 X19.673 Y98.327 E41.60452
G1 X18.566 Y97.718 E41.66755
G1 X17.554 Y96.98 E41.73004
G1 X16.647 Y96.129 E41.79209
G1 X15.839 Y95.152 E41.85534
G1 X15.17 Y94.1 E41.91754
G1 X14.633 Y92.956 E41.98059
G1 X14.247 Y91.766 E42.04301
G1 X14.008 Y90.52 E42.1063
G1 X13.937 Y89.276 E42.16847
G1 X13.937 Y27.275 E45.26171
G1 X14.008 Y26.03 E45.32392
G1 X14.248 Y24.782 E45.38733
G1 X14.631 Y23.598 E45.44941
G1 X15.17 Y22.451 E45.51264
G1 X15.839 Y21.399 E45.57484
G1 X16.653 Y20.414 E45.63859
G1 X17.563 Y19.564 E45.70071
G0 F3600 X17.824 Y19.868
G1 F1800 X18.795 Y19.162 E45.76061
G1 X19.853 Y18.583 E45.82078
G1 X20.97 Y18.141 E45.88071
G1 X22.14 Y17.839 E45.94099
G1 X23.334 Y17.689 E46.00103
G1 X82.541 Y17.689 E48.95488
G1 X83.749 Y17.842 E49.01563
G1 X84.908 Y18.142 E49.07536
G1 X86.036 Y18.589 E49.13589
G1 X87.094 Y19.173 E49.19618
G1 X88.061 Y19.878 E49.25589
G1 X88.938 Y20.699 E49.31582
G1 X89.707 Y21.63 E49.37607
G1 X90.354 Y22.647 E49.4362
G1 X90.867 Y23.735 E49.49621
G1 X91.241 Y24.891 E49.55683
G1 X91.468 Y26.076 E49.61702
G1 X91.537 Y27.274 E49.67689
G1 X91.532 Y89.438 E52.77827
G1 X91.467 Y90.475 E52.8301
G1 X91.239 Y91.666 E52.8906
G1 X90.868 Y92.812 E52.9507
G1 X90.357 Y93.899 E53.01062
G1 X89.705 Y94.925 E53.07127
G1 X88.936 Y95.854 E53.13144
G1 X88.055 Y96.679 E53.19165
G1 X87.082 Y97.387 E53.25169
G1 X86.021 Y97.968 E53.31204
G1 X84.896 Y98.412 E53.37238
G1 X83.738 Y98.711 E53.43205
G1 X82.541 Y98.861 E53.49223
G1 X23.334 Y98.861 E56.44608
G1 X22.125 Y98.708 E56.50688
G1 X20.966 Y98.409 E56.56659
G1 X19.84 Y97.962 E56.62704
G1 X18.783 Y97.381 E56.68721
G1 X17.812 Y96.673 E56.74716
G1 X16.932 Y95.847 E56.80738
G1 X16.17 Y94.925 E56.86705
G1 X15.519 Y93.903 E56.92751
G1 X15.003 Y92.804 E56.98808
G1 X14.637 Y91.671 E57.04748
G1 X14.406 Y90.47 E57.1085
G1 X14.337 Y89.276 E57.16816
G1 X14.342 Y27.112 E60.26954
G1 X14.408 Y26.069 E60.32168
G1 X14.634 Y24.89 E60.38157
G1 X15.006 Y23.742 E60.44178
G1 X15.519 Y22.649 E60.50201
G1 X16.167 Y21.63 E60.56226
G1 X16.938 Y20.697 E60.62264
G1 X17.824 Y19.868 E60.68318
G0 F3600 X18.078 Y20.179
G1 F1800 X19.008 Y19.502 E60.74057
G1 X20.024 Y18.945 E60.79838
G1 X21.096 Y18.522 E60.85587
G1 X22.212 Y18.233 E60.91338
G1 X23.36 Y18.089 E60.97111
G1 X82.524 Y18.089 E63.92281
G1 X83.67 Y18.235 E63.98045
G1 X84.782 Y18.523 E64.03776
G1 X85.866 Y18.952 E64.09592
G1 X86.877 Y19.509 E64.15351
G1 X87.803 Y20.185 E64.2107
G1 X88.649 Y20.976 E64.26849
G1 X89.382 Y21.864 E64.32593
G1 X90.004 Y22.842 E64.38376
G1 X90.497 Y23.887 E64.4414
G1 X90.851 Y24.985 E64.49896
G1 X91.069 Y26.122 E64.55672
G1 X91.133 Y27.136 E64.60741
G1 X91.133 Y89.413 E67.71442
G1 X91.069 Y90.43 E67.76526
G1 X90.852 Y91.564 E67.82286
G1 X90.498 Y92.66 E67.88032
G1 X90.005 Y93.708 E67.9381
G1 X89.381 Y94.689 E67.99611
G1 X88.643 Y95.58 E68.05383
G1 X87.801 Y96.369 E68.1114
G1 X86.868 Y97.048 E68.16896
G1 X85.851 Y97.605 E68.22681
G1 X84.771 Y98.032 E68.28475
G1 X83.666 Y98.316 E68.34167
G1 X82.515 Y98.461 E68.39955
G1 X23.352 Y98.461 E71.35121
G1 X22.212 Y98.316 E71.40854
G1 X21.085 Y98.026 E71.4666
G1 X20.014 Y97.601 E71.52408
G1 X18.995 Y97.04 E71.58212
G1 X18.066 Y96.363 E71.63947
G1 X17.225 Y95.574 E71.697
G1 X16.493 Y94.689 E71.7543
G1 X15.871 Y93.71 E71.81216
G1 X15.378 Y92.661 E71.86999
G1 X15.022 Y91.562 E71.92762
G1 X14.805 Y90.431 E71.98508
G1 X14.741 Y89.414 E72.03592
G1 X14.741 Y27.137 E75.14293
G1 X14.805 Y26.123 E75.19362
G1 X15.022 Y24.986 E75.25137
G1 X15.378 Y23.89 E75.30886
G1 X15.871 Y22.841 E75.36669
G1 X16.493 Y21.862 E75.42455
G1 X17.227 Y20.974 E75.48203
G1 X18.078 Y20.179 E75.54013
G0 F3600 X18.33 Y20.49
G1 F1800 X19.222 Y19.841 E75.59517
G1 X20.198 Y19.307 E75.65067
G1 X21.222 Y18.902 E75.70561
G1 X22.285 Y18.627 E75.76039
G1 X23.385 Y18.489 E75.8157
G1 X82.497 Y18.489 E78.76481
G1 X83.59 Y18.628 E78.81978
G1 X84.67 Y18.907 E78.87543
G1 X85.686 Y19.31 E78.92996
G1 X86.663 Y19.849 E78.98562
G1 X87.551 Y20.496 E79.04044
G1 X88.356 Y21.25 E79.09547
G1 X89.059 Y22.101 E79.15054
G1 X89.65 Y23.031 E79.20551
G1 X90.123 Y24.033 E79.26079
G1 X90.463 Y25.086 E79.316
G1 X90.671 Y26.17 E79.37106
G1 X90.737 Y27.274 E79.42624
G1 X90.737 Y89.275 E82.51948
G1 X90.671 Y90.381 E82.57476
G1 X90.463 Y91.464 E82.62978
G1 X90.125 Y92.513 E82.68476
G1 X89.652 Y93.517 E82.74013
G1 X89.056 Y94.454 E82.79553
G1 X88.354 Y95.302 E82.85046
G1 X87.545 Y96.06 E82.90577
G1 X86.655 Y96.708 E82.96069
G1 X85.676 Y97.244 E83.01638
G1 X84.65 Y97.649 E83.07141
G1 X83.588 Y97.923 E83.12612
G1 X82.49 Y98.061 E83.18133
G1 X23.378 Y98.061 E86.13044
G1 X22.284 Y97.922 E86.18546
G1 X21.211 Y97.646 E86.24074
G1 X20.183 Y97.238 E86.29592
G1 X19.214 Y96.704 E86.35112
G1 X18.323 Y96.055 E86.40611
G1 X17.518 Y95.3 E86.46117
G1 X16.815 Y94.449 E86.51624
G1 X16.224 Y93.52 E86.57117
G1 X15.752 Y92.515 E86.62657
G1 X15.41 Y91.459 E86.68194
G1 X15.203 Y90.381 E86.73671
G1 X15.137 Y89.276 E86.79194
G1 X15.137 Y27.275 E89.88518
G1 X15.203 Y26.17 E89.94041
G1 X15.41 Y25.088 E89.99537
G1 X15.751 Y24.037 E90.05049
G1 X16.224 Y23.031 E90.10595
G1 X16.815 Y22.102 E90.16088
G1 X17.523 Y21.244 E90.21638
G1 X18.33 Y20.49 E90.27148
G0 F3600 X18.587 Y20.798
G1 F1800 X19.431 Y20.183 E90.32358
G1 X20.369 Y19.669 E90.37694
G1 X21.348 Y19.282 E90.42946
G1 X22.357 Y19.022 E90.48145
G1 X23.411 Y18.889 E90.53445
G1 X82.469 Y18.889 E93.48086
G1 X83.517 Y19.022 E93.53357
G1 X84.545 Y19.288 E93.58654
G1 X85.517 Y19.673 E93.6387
G1 X86.446 Y20.185 E93.69162
G1 X87.297 Y20.806 E93.74418
G1 X88.063 Y21.523 E93.79653
G1 X88.731 Y22.332 E93.84887
G1 X89.3 Y23.226 E93.90174
G1 X89.75 Y24.181 E93.95441
G1 X90.076 Y25.188 E94.00722
G1 X90.274 Y26.222 E94.05974
G1 X90.337 Y27.274 E94.11232
G1 X90.334 Y89.363 E97.20995
G1 X90.273 Y90.331 E97.25834
G1 X90.075 Y91.362 E97.31072
G1 X89.75 Y92.369 E97.36351
G1 X89.303 Y93.319 E97.41589
G1 X88.732 Y94.218 E97.46902
G1 X88.057 Y95.033 E97.52182
G1 X87.288 Y95.753 E97.57437
G1 X86.439 Y96.371 E97.62676
G1 X85.512 Y96.879 E97.6795
G1 X84.524 Y97.269 E97.73249
G1 X83.516 Y97.529 E97.78443
G1 X82.463 Y97.661 E97.83738
G1 X23.406 Y97.661 E100.78374
G1 X22.355 Y97.528 E100.83659
G1 X21.34 Y97.266 E100.88889
G1 X20.356 Y96.876 E100.9417
G1 X19.426 Y96.364 E100.99466
G1 X18.581 Y95.748 E101.04683
G1 X17.808 Y95.023 E101.09971
G1 X17.142 Y94.218 E101.15183
G1 X16.572 Y93.321 E101.20485
G1 X16.123 Y92.365 E101.25755
G1 X15.799 Y91.365 E101.30999
G1 X15.6 Y90.329 E101.36262
G1 X15.537 Y89.276 E101.41525
G1 X15.54 Y27.187 E104.51288
G1 X15.601 Y26.22 E104.56122
G1 X15.8 Y25.182 E104.61395
G1 X16.122 Y24.188 E104.66608
G1 X16.572 Y23.23 E104.71889
G1 X17.142 Y22.333 E104.77191
G1 X17.817 Y21.517 E104.82474
G1 X18.587 Y20.798 E104.8773
G0 F3600 X18.84 Y21.108
G1 F1800 X19.646 Y20.521 E104.92705
G1 X20.54 Y20.032 E104.97788
G1 X21.467 Y19.665 E105.02763
G1 X22.437 Y19.415 E105.0776
G1 X23.438 Y19.289 E105.12793
G1 X82.443 Y19.289 E108.07171
G1 X83.445 Y19.416 E108.1221
G1 X84.416 Y19.668 E108.17214
G1 X85.351 Y20.038 E108.22231
G1 X86.228 Y20.522 E108.27229
G1 X87.039 Y21.113 E108.32235
G1 X87.773 Y21.8 E108.37251
G1 X88.411 Y22.573 E108.42251
G1 X88.946 Y23.414 E108.47224
G1 X89.379 Y24.332 E108.52288
G1 X89.686 Y25.281 E108.57264
G1 X89.876 Y26.275 E108.62313
G1 X89.937 Y27.274 E108.67306
G1 X89.935 Y89.338 E111.76945
G1 X89.876 Y90.277 E111.81639
G1 X89.686 Y91.269 E111.86678
G1 X89.379 Y92.218 E111.91654
G1 X88.95 Y93.131 E111.96687
G1 X88.411 Y93.978 E112.01695
G1 X87.768 Y94.755 E112.06727
G1 X87.03 Y95.446 E112.11771
G1 X86.225 Y96.032 E112.16739
G1 X85.341 Y96.516 E112.21767
G1 X84.406 Y96.886 E112.26783
G1 X83.436 Y97.135 E112.3178
G1 X82.437 Y97.261 E112.36803
G1 X23.432 Y97.261 E115.3118
G1 X22.435 Y97.135 E115.36194
G1 X21.452 Y96.881 E115.41259
G1 X20.531 Y96.516 E115.46202
G1 X19.643 Y96.027 E115.51259
G1 X18.83 Y95.434 E115.5628
G1 X18.104 Y94.754 E115.61242
G1 X17.463 Y93.979 E115.6626
G1 X16.926 Y93.133 E115.71259
G1 X16.497 Y92.221 E115.76287
G1 X16.187 Y91.265 E115.81301
G1 X15.998 Y90.276 E115.86325
G1 X15.937 Y89.276 E115.91323
G1 X15.939 Y27.212 E119.00962
G1 X15.998 Y26.275 E119.05646
G1 X16.187 Y25.285 E119.10674
G1 X16.497 Y24.33 E119.15683
G1 X16.926 Y23.418 E119.20711
G1 X17.463 Y22.572 E119.25711
G1 X18.109 Y21.791 E119.30767
G1 X18.84 Y21.108 E119.35758
G0 F3600 X19.07 Y21.441
G1 F1800 X19.832 Y20.881 E119.40476
G1 X20.742 Y20.382 E119.45654
G1 X21.559 Y20.059 E119.50037
G1 X22.474 Y19.818 E119.54758
G1 X23.499 Y19.689 E119.59912
G1 X82.456 Y19.694 E122.54049
G1 X83.406 Y19.819 E122.5883
G1 X84.255 Y20.039 E122.63205
G1 X85.143 Y20.386 E122.67962
G1 X86.047 Y20.884 E122.73111
G1 X86.756 Y21.401 E122.77489
G1 X87.504 Y22.102 E122.82603
G1 X88.062 Y22.778 E122.86976
G1 X88.614 Y23.646 E122.92108
G1 X88.989 Y24.441 E122.96494
G1 X89.287 Y25.349 E123.01261
G1 X89.481 Y26.361 E123.06402
G1 X89.536 Y27.236 E123.10776
G1 X89.536 Y89.313 E126.2048
G1 X89.481 Y90.19 E126.24864
G1 X89.287 Y91.201 E126.3
G1 X88.99 Y92.105 E126.34747
G1 X88.578 Y92.969 E126.39522
G1 X88.061 Y93.774 E126.44295
G1 X87.499 Y94.453 E126.48693
G1 X86.804 Y95.11 E126.53464
G1 X86.042 Y95.67 E126.58182
G1 X85.132 Y96.169 E126.6336
G1 X84.244 Y96.515 E126.68115
G1 X83.401 Y96.732 E126.72457
G1 X82.376 Y96.861 E126.77611
G1 X23.419 Y96.856 E129.71749
G1 X22.47 Y96.731 E129.76525
G1 X21.549 Y96.489 E129.81275
G1 X20.664 Y96.133 E129.86035
G1 X19.827 Y95.667 E129.90814
G1 X19.118 Y95.15 E129.95192
G1 X18.423 Y94.504 E129.99926
G1 X17.769 Y93.713 E130.05046
G1 X17.259 Y92.902 E130.09826
G1 X16.857 Y92.036 E130.14589
G1 X16.587 Y91.202 E130.18963
G1 X16.393 Y90.19 E130.24103
G1 X16.338 Y89.314 E130.28482
G1 X16.338 Y27.237 E133.38186
G1 X16.393 Y26.361 E133.42565
G1 X16.587 Y25.348 E133.4771
G1 X16.857 Y24.515 E133.52079
G1 X17.259 Y23.649 E133.56842
G1 X17.769 Y22.838 E133.61622
G1 X18.427 Y22.042 E133.66775
G1 X19.07 Y21.441 E133.71166
G0 F3600 X19.362 Y21.717
G1 F1800 X20.067 Y21.204 E133.75515
G1 X20.889 Y20.754 E133.80191
G1 X21.73 Y20.423 E133.847
G1 X22.574 Y20.205 E133.89049
G1 X23.499 Y20.089 E133.937
G1 X82.405 Y20.091 E136.87583
G1 X83.305 Y20.206 E136.9211
G1 X84.154 Y20.426 E136.96485
G1 X84.996 Y20.758 E137.01001
G1 X85.811 Y21.207 E137.05643
G1 X86.52 Y21.724 E137.10021
G1 X87.178 Y22.338 E137.14511
G1 X87.768 Y23.053 E137.19135
G1 X88.252 Y23.817 E137.23648
G1 X88.627 Y24.612 E137.28033
G1 X88.912 Y25.495 E137.32662
G1 X89.082 Y26.386 E137.37187
G1 X89.137 Y27.261 E137.41561
G1 X89.137 Y89.288 E140.51015
G1 X89.082 Y90.165 E140.55399
G1 X88.912 Y91.055 E140.5992
G1 X88.628 Y91.935 E140.64533
G1 X88.241 Y92.754 E140.69052
G1 X87.753 Y93.519 E140.73579
G1 X87.174 Y94.216 E140.781
G1 X86.512 Y94.834 E140.82618
G1 X85.807 Y95.347 E140.86968
G1 X84.985 Y95.797 E140.91643
G1 X84.144 Y96.128 E140.96152
G1 X83.301 Y96.345 E141.00495
G1 X82.376 Y96.461 E141.05146
G1 X23.47 Y96.459 E143.9903
G1 X22.57 Y96.344 E144.03556
G1 X21.72 Y96.125 E144.07935
G1 X20.879 Y95.793 E144.12446
G1 X20.063 Y95.344 E144.17093
G1 X19.354 Y94.827 E144.21471
G1 X18.696 Y94.212 E144.25964
G1 X18.106 Y93.498 E144.30585
G1 X17.621 Y92.732 E144.35108
G1 X17.238 Y91.913 E144.39619
G1 X16.968 Y91.079 E144.43992
G1 X16.792 Y90.165 E144.48636
G1 X16.737 Y89.289 E144.53015
G1 X16.737 Y27.262 E147.62469
G1 X16.792 Y26.386 E147.66848
G1 X16.968 Y25.471 E147.71497
